icons/Device/base-station-line.svg

<svg viewBox="0 0 24 24" xmlns="http://www.w3.org/2000/svg"><path d="M12 12.9997L18 21.9997H6L12 12.9997ZM12 16.5997L9.74 19.9997H14.26L12 16.5997ZM10.9393 10.5604C10.3536 9.97462 10.3536 9.02487 10.9393 8.43908C11.5251 7.85329 12.4749 7.85329 13.0607 8.43908C13.6464 9.02487 13.6464 9.97462 13.0607 10.5604C12.4749 11.1462 11.5251 11.1462 10.9393 10.5604ZM5.28249 2.78223L6.6967 4.19644C3.76777 7.12537 3.76777 11.8741 6.6967 14.803L5.28249 16.2173C1.5725 12.5073 1.5725 6.49221 5.28249 2.78223ZM18.7175 2.78223C22.4275 6.49221 22.4275 12.5073 18.7175 16.2173L17.3033 14.803C20.2322 11.8741 20.2322 7.12537 17.3033 4.19644L18.7175 2.78223ZM8.11091 5.61065L9.52513 7.02487C8.15829 8.3917 8.15829 10.6078 9.52513 11.9746L8.11091 13.3888C5.96303 11.2409 5.96303 7.75854 8.11091 5.61065H8.11091ZM15.8891 5.61065C18.037 7.75854 18.037 11.2409 15.8891 13.3888L14.4749 11.9746C15.8417 10.6078 15.8417 8.3917 14.4749 7.02487L15.8891 5.61065Z"/></svg>

<svg xmlns="http://www.w3.org/2000/svg" viewBox="0 0 24 24">
    <g>
        <path fill="none" d="M0 0h24v24H0z"/>
        <path fill-rule="nonzero" d="M12 13l6 9H6l6-9zm0 3.6L9.74 20h4.52L12 16.6zm-1.06-6.04a1.5 1.5 0 1 1 2.12-2.12 1.5 1.5 0 0 1-2.12 2.12zM5.281 2.783l1.415 1.415a7.5 7.5 0 0 0 0 10.606l-1.415 1.415a9.5 9.5 0 0 1 0-13.436zm13.436 0a9.5 9.5 0 0 1 0 13.436l-1.415-1.415a7.5 7.5 0 0 0 0-10.606l1.415-1.415zM8.11 5.611l1.414 1.414a3.5 3.5 0 0 0 0 4.95l-1.414 1.414a5.5 5.5 0 0 1 0-7.778zm7.778 0a5.5 5.5 0 0 1 0 7.778l-1.414-1.414a3.5 3.5 0 0 0 0-4.95l1.414-1.414z"/>
    </g>
</svg>
